X: 102238
T: Joe Bane's 
S: Treoir 39/1
L: 1/8
M: 4/4
R: reel
Q: 1/4=180
K: Ador
BcBA GEED | G2 BG cGBG | BcBA GEED |1 EAAG A2 GA :|2 EAAG A2 z2 ||
Bded g2 ed | g2 ed BGGA | (3Bcd ed g2 ed | eaag aged |
Bded g2 ed | g2 ed BG G2 | BcBA GEED | EAAG A4 ||
